icons/light/pdf.svg

<svg width="16" height="16" viewBox="0 0 16 16" fill="none" xmlns="http://www.w3.org/2000/svg">
<path fill-rule="evenodd" clip-rule="evenodd" d="M4 1L3 2V14L4 15H13L14 14V5L13.7071 4.29289L10.7071 1.29289L10 1H4ZM4 14V2H9V6H13V14H4ZM13 5L10 2V5H13Z" fill="#424242"/>
<path d="M7.61571 8.18025C7.45571 7.66692 7.10238 6.02692 8.03571 6.00025C8.96905 5.97358 8.35571 8.08025 8.35571 8.08025C8.61571 9.07358 9.70238 9.78692 9.70238 9.78692C10.0357 9.68692 11.9357 9.46692 11.669 10.4536C11.3824 11.4403 9.33571 10.5136 9.33571 10.5136C8.03571 10.6069 7.06238 10.9536 7.06238 10.9536C6.30905 12.3603 5.42904 12.9736 5.06904 12.3803C4.62238 11.6403 6.48904 10.6869 6.48904 10.6869C7.45571 9.12025 7.60238 8.20692 7.61571 8.18025ZM8.04904 8.74025C7.78238 9.60692 7.24905 10.5336 7.24905 10.5336C7.81571 10.3069 9.05571 10.0469 9.05571 10.0469C8.29571 9.38025 8.06238 8.74692 8.04904 8.74025ZM10.1424 10.1869C10.1424 10.1869 11.309 10.6203 11.3357 10.4469C11.3824 10.2669 10.449 10.1069 10.1424 10.1869ZM6.36904 11.1803C5.85571 11.3803 5.36238 12.2336 5.48238 12.2336C5.60238 12.2403 6.08904 11.8336 6.36904 11.1803ZM8.04904 7.48025C8.04904 7.44692 8.33571 6.36025 8.04904 6.32692C7.84904 6.30692 8.04238 7.45358 8.04904 7.48025Z" fill="#424242"/>
</svg>

<svg xmlns="http://www.w3.org/2000/svg" width="16" height="16" fill="#424242" xmlns:v="https://vecta.io/nano"><path fill-rule="evenodd" d="M4 1L3 2v12l1 1h9l1-1V5l-.293-.707-3-3L10 1H4zm0 13V2h5v4h4v8H4zm9-9l-3-3v3h3z"/><path d="M7.616 8.18c-.16-.513-.513-2.153.42-2.18s.32 2.08.32 2.08c.26.993 1.347 1.707 1.347 1.707.333-.1 2.233-.32 1.967.667-.287.987-2.333.06-2.333.06-1.3.093-2.273.44-2.273.44-.753 1.407-1.633 2.02-1.993 1.427-.447-.74 1.42-1.693 1.42-1.693.967-1.567 1.113-2.48 1.127-2.507zm.433.56c-.267.867-.8 1.793-.8 1.793.567-.227 1.807-.487 1.807-.487-.76-.667-.993-1.3-1.007-1.307zm2.093 1.447s1.167.433 1.193.26c.047-.18-.887-.34-1.193-.26zm-3.773.993c-.513.2-1.007 1.053-.887 1.053.12.007.607-.4.887-1.053zm1.68-3.7c0-.033.287-1.12 0-1.153-.2-.02-.007 1.127 0 1.153z"/></svg>
